docs/public/img/adapters/xata.svg

<svg width="461" height="467" viewBox="0 0 461 467" fill="none" xmlns="http://www.w3.org/2000/svg">
<path d="M389.431 465.611C421.673 433.443 443.246 393.222 449.403 353.796C455.56 314.369 445.797 278.966 422.262 255.376L300.691 376.663L389.431 465.611Z" fill="#06D6A0"/>
<path d="M71.5738 466.306C39.331 434.138 17.7582 393.917 11.6011 354.49C5.44395 315.064 15.2069 279.661 38.7422 256.07L160.314 377.358L71.5738 466.306Z" fill="#FFBB00"/>
<path d="M0.673946 122.184C0.727229 167.729 18.8709 211.387 51.1137 243.554L51.1168 243.551L172.673 364.823C204.84 332.58 222.882 288.88 222.829 243.335C222.775 197.79 204.632 154.132 172.389 121.964L172.386 121.967L50.8296 0.695312C18.6622 32.9381 0.620662 76.6388 0.673946 122.184Z" fill="#FF0075"/>
<path d="M460.329 121.488C460.276 167.033 442.132 210.692 409.89 242.859L409.886 242.855L288.33 364.127C256.163 331.884 238.121 288.183 238.175 242.638C238.228 197.094 256.372 153.435 288.614 121.268L288.618 121.271L410.174 0C442.341 32.2428 460.383 75.9435 460.329 121.488Z" fill="#0076FF"/>
</svg>

<svg xmlns="http://www.w3.org/2000/svg" fill="none" viewBox="0 0 461 467"><path fill="#06D6A0" d="M389.4 465.6c32.3-32.2 53.8-72.4 60-111.8 6.2-39.4-3.6-74.8-27.1-98.4L300.7 376.7l88.7 89Z"/><path fill="#FB0" d="M71.6 466.3c-32.3-32.2-53.8-72.4-60-111.8-6.2-39.4 3.6-74.8 27.1-98.4l121.6 121.3-88.7 89Z"/><path fill="#FF0075" d="M.7 122.2c0 45.5 18.2 89.2 50.4 121.4l121.6 121.2a171.7 171.7 0 0 0-.3-242.8L50.8.7A171.7 171.7 0 0 0 .7 122.2Z"/><path fill="#0076FF" d="M460.3 121.5c0 45.5-18.2 89.2-50.4 121.4L288.3 364a171.7 171.7 0 0 1 .3-242.8L410.2 0c32.1 32.2 50.2 76 50.1 121.5Z"/></svg>
